X: 465
P: Longways for as many as will
M: C|
L: 1/16
K: G
[|\
c6 d2 (B2d2) (g2d2) | B4 A2G2 G8 |]\
fgeg fgeg fgfg a3e | f4 (e2d2) d6 g2 |\
e2g2 d2g2 c2g2 B2g2 | e2g2 d2g2 c2g2 B2g2 |\
e4 d3c B3c (Bc) (dA) | B4 (A2G2) G8 |]

